svg/u1f4d9.svg

<svg viewBox="0 0 128 128" xmlns="http://www.w3.org/2000/svg">
  <g>
    <path d="M106.02,121.68H36.18c-1.66,0-1.26-1.35-1.26-3.01V14.05c0-1.66,1.35-3.01,3.01-3.01h69.36 c2.72,0,4.93,2.21,4.93,4.93v99.76C112.22,119.59,110.39,121.68,106.02,121.68z" fill="#D55E00"/>
    <path d="M18.53,115.14c0,1.94,3.07,3.57,5.01,3.57l80.39-0.05c2.98,0,4.54-1.58,4.54-3.52l-0.25-21.32H18.53 V115.14z" fill="#94C6D6"/>
    <path d="M101.47,105.88c0,0-2.13,5.85,0.03,8.78c2.51,3.4,6.89,2.58,6.89,0.99V16.44 c0-0.66-0.61-1.14-1.25-1c-1.39,0.3-3.89,0.31-7.21-1.89L101.47,105.88z" fill="#F5F5F5"/>
    <path d="M94.16,110.85H23.64V6.45c0,0,69.99,0,72.25,0c2.27,0,3.87,0.61,4.62,1.62 c0.98,1.31,1.5,3.3,1.5,5.48V103C102.01,107.33,98.5,110.85,94.16,110.85z" fill="#D55E00"/>
    <path d="M92.01,107.78H25.54c-2.76,0-4.99-2.24-4.99-4.99V11.45c0-2.76,2.24-4.99,4.99-4.99h66.47 c3.82,0,6.92,2.18,6.92,6.92v87.49C98.92,104.68,95.83,107.78,92.01,107.78z" fill="#FF9F12"/>
    <path d="M34.43,109.75c0,0-0.05-101.82-0.05-103.29h-11.2c0,0-2.31-0.4-3.85,0 c-2.79,0.73-3.56,2.76-3.56,6.07c0,0,0,94.41,0,94.41c0,6.7,0.41,9.6,2.44,11.72c-0.12-1.54,0.87-6.83,1.68-8.28 C20.61,109.1,34.43,109.75,34.43,109.75z" fill="#616161"/>
    <line fill="none" stroke="#424242" stroke-width="2" stroke-miterlimit="10" x1="23.18" x2="23.18" y1="6.45" y2="110.85"/>
    <path d="M34.38,109.34l-11.3,0.22 c-3.77,0-5.06,4.04-4.39,6.71c0.84,3.37,4.32,3.92,5.18,3.92s12.65,0,12.65,0" fill="none" stroke="#424242" stroke-width="3" stroke-miterlimit="10"/>
  </g>
</svg>

<svg viewBox="0 0 128 128" xmlns="http://www.w3.org/2000/svg">
  <defs/>
  <path d="M106.02,121.68 L36.18,121.68 C34.52,121.68 34.92,120.33 34.92,118.67 L34.92,14.05 C34.92,12.39 36.27,11.04 37.93,11.04 L107.29,11.04 C110.01,11.04 112.22,13.25 112.22,15.97 L112.22,115.73 C112.22,119.59 110.39,121.68 106.02,121.68 Z" fill="#D55E00"/>
  <path d="M18.53,115.14 C18.53,117.08 21.6,118.71 23.54,118.71 L103.93,118.66 C106.91,118.66 108.47,117.08 108.47,115.14 L108.22,93.82 L18.53,93.82 L18.53,115.14 Z" fill="#94C6D6"/>
  <path d="M101.47,105.88 C101.47,105.88 99.34,111.73 101.5,114.66 C104.01,118.06 108.39,117.24 108.39,115.65 L108.39,16.44 C108.39,15.78 107.78,15.3 107.14,15.44 C105.75,15.74 103.25,15.75 99.93,13.55 L101.47,105.88 Z" fill="#F5F5F5"/>
  <path d="M94.16,110.85 L23.64,110.85 L23.64,6.45 C23.64,6.45 93.63,6.45 95.89,6.45 C98.16,6.45 99.76,7.06 100.51,8.07 C101.49,9.38 102.01,11.37 102.01,13.55 L102.01,103 C102.01,107.33 98.5,110.85 94.16,110.85 Z" fill="#D55E00"/>
  <path d="M92.01,107.78 L25.54,107.78 C22.78,107.78 20.55,105.54 20.55,102.79 L20.55,11.45 C20.55,8.69 22.79,6.46 25.54,6.46 L92.01,6.46 C95.83,6.46 98.93,8.64 98.93,13.38 L98.93,100.87 C98.92,104.68 95.83,107.78 92.01,107.78 Z" fill="#FF9F12"/>
  <path d="M34.43,109.75 C34.43,109.75 34.38,7.93 34.38,6.46 L23.18,6.46 C23.18,6.46 20.87,6.06 19.33,6.46 C16.54,7.19 15.77,9.22 15.77,12.53 C15.77,12.53 15.77,106.94 15.77,106.94 C15.77,113.64 16.18,116.54 18.21,118.66 C18.09,117.12 19.08,111.83 19.89,110.38 C20.61,109.1 34.43,109.75 34.43,109.75 Z" fill="#616161"/>
  <path d="M24.18,6.45 L24.18,110.85 L22.18,110.85 L22.18,6.45 L24.18,6.45 Z" fill="#424242"/>
  <path d="M34.409,110.84 L23.109,111.06 Q21.368,111.06 20.546,112.615 Q19.714,114.189 20.145,115.905 Q20.839,118.69 23.87,118.69 L36.52,118.69 L36.52,121.69 L23.87,121.69 Q22.257,121.69 20.584,120.827 Q17.94,119.461 17.235,116.635 Q16.525,113.804 17.894,111.213 Q19.56,108.06 23.051,108.06 L34.351,107.84 Z" fill="#424242"/>
</svg>
